Systematic/src/svg/Nintendo - Nintendo 64-content.svg

<svg xmlns="http://www.w3.org/2000/svg" xml:space="preserve" width="330.667" height="224"><defs><clipPath id="a" clipPathUnits="userSpaceOnUse"><path d="M0 256h256V0H0Z"/></clipPath><clipPath id="b" clipPathUnits="userSpaceOnUse"><path d="M4 212h248V44H4Z"/></clipPath></defs><g clip-path="url(#a)" transform="matrix(1.33333 0 0 -1.33333 -5.333 282.667)"><g clip-path="url(#b)" style="opacity:.5"><path d="M0 0c-40.978 0-81.092-8.522-119.226-25.328A8 8 0 0 1-124-32.649V-160a8 8 0 0 1 8-8h232a8 8 0 0 1 8 8v127.351a8 8 0 0 1-4.774 7.321C81.092-8.522 40.978 0 0 0" style="fill:#fff;fill-opacity:1;fill-rule:nonzero;stroke:none" transform="translate(128 212)"/></g><path d="M0 0c74.571 32.865 157.429 32.865 232 0v-127.351H0Z" style="fill:#999;fill-opacity:1;fill-rule:nonzero;stroke:none" transform="translate(12 179.351)"/><path d="M0 0c-15.943 0-31.412-1.057-45.976-3.142C-51.972-4.001-56-8.142-56-13.447v-108.228C-56-127.368-51.376-132-45.692-132h91.384C51.376-132 56-127.368 56-121.675v108.228c0 5.305-4.028 9.446-10.024 10.305C31.412-1.057 15.943 0 0 0" style="fill:gray;fill-opacity:1;fill-rule:nonzero;stroke:none" transform="translate(128 194)"/><path d="M0 0c29.077 4.163 62.308 4.163 91.385 0 4.556-.652 8.307-3.713 8.307-8.325v-108.228a8.3 8.3 0 0 0-8.307-8.325H0a8.3 8.3 0 0 0-8.308 8.325V-8.325C-8.308-3.713-4.556-.652 0 0" style="fill:#0000b8;fill-opacity:1;fill-rule:nonzero;stroke:none" transform="translate(82.308 188.878)"/><path d="M62 51.857h-2v144h2zM196 52h-2v144h2z" style="fill:gray;fill-opacity:1;fill-rule:nonzero;stroke:none"/><path d="m0 0-1.097-.736-5.722-3.838C-10.015-6.717-12-10.637-12-14.805V-48h2.133v33.195c0 3.353 1.574 6.461 4.145 8.185L0-2.782Z" style="fill:gray;fill-opacity:1;fill-rule:nonzero;stroke:none" transform="translate(244 100)"/><path d="m0 0 1.097-.736 5.722-3.838C10.015-6.717 12-10.637 12-14.805V-48H9.867v33.195c0 3.353-1.574 6.461-4.145 8.185L0-2.782Z" style="fill:gray;fill-opacity:1;fill-rule:nonzero;stroke:none" transform="translate(12 100)"/></g></svg>

<?xml version="1.0" encoding="UTF-8" standalone="no"?>
<svg
   xmlns:dc="http://purl.org/dc/elements/1.1/"
   xmlns:cc="http://creativecommons.org/ns#"
   xmlns:rdf="http://www.w3.org/1999/02/22-rdf-syntax-ns#"
   xmlns:svg="http://www.w3.org/2000/svg"
   xmlns="http://www.w3.org/2000/svg"
   viewBox="0 0 330.66665 224"
   height="224"
   width="330.66666"
   xml:space="preserve"
   id="svg2"
   version="1.1"><metadata
     id="metadata8"><rdf:RDF><cc:Work
         rdf:about=""><dc:format>image/svg+xml</dc:format><dc:type
           rdf:resource="http://purl.org/dc/dcmitype/StillImage" /></cc:Work></rdf:RDF></metadata><defs
     id="defs6"><clipPath
       id="clipPath18"
       clipPathUnits="userSpaceOnUse"><path
         id="path16"
         d="M 0,256 H 256 V 0 H 0 Z" /></clipPath><clipPath
       id="clipPath26"
       clipPathUnits="userSpaceOnUse"><path
         id="path24"
         d="M 4,212 H 252 V 44 H 4 Z" /></clipPath></defs><g
     transform="matrix(1.3333333,0,0,-1.3333333,-5.3333332,282.66666)"
     id="g10"><g
       id="g12"><g
         clip-path="url(#clipPath18)"
         id="g14"><g
           id="g20"><g
             id="g22" /><g
             id="g34"><g
               style="opacity:0.5"
               id="g32"
               clip-path="url(#clipPath26)"><g
                 id="g30"
                 transform="translate(128,212)"><path
                   id="path28"
                   style="fill:#ffffff;fill-opacity:1;fill-rule:nonzero;stroke:none"
                   d="m 0,0 c -40.978,0 -81.092,-8.522 -119.226,-25.328 -2.902,-1.279 -4.774,-4.15 -4.774,-7.321 V -160 c 0,-4.418 3.582,-8 8,-8 h 232 c 4.418,0 8,3.582 8,8 v 127.351 c 0,3.171 -1.872,6.042 -4.774,7.321 C 81.092,-8.522 40.978,0 0,0" /></g></g></g></g><g
           transform="translate(12,179.3513)"
           id="g36"><path
             id="path38"
             style="fill:#999999;fill-opacity:1;fill-rule:nonzero;stroke:none"
             d="M 0,0 C 74.571,32.865 157.429,32.865 232,0 V -127.351 H 0 Z" /></g><g
           transform="translate(128,194)"
           id="g40"><path
             id="path42"
             style="fill:#808080;fill-opacity:1;fill-rule:nonzero;stroke:none"
             d="M 0,0 C -15.943,0 -31.412,-1.057 -45.976,-3.142 -51.972,-4.001 -56,-8.142 -56,-13.447 v -108.228 c 0,-5.693 4.624,-10.325 10.308,-10.325 h 91.384 c 5.684,0 10.308,4.632 10.308,10.325 V -13.447 C 56,-8.142 51.972,-4.001 45.976,-3.142 31.412,-1.057 15.943,0 0,0" /></g><g
           transform="translate(82.3077,188.8781)"
           id="g44"><path
             id="path46"
             style="fill:#0000b8;fill-opacity:1;fill-rule:nonzero;stroke:none"
             d="m 0,0 c 29.077,4.163 62.308,4.163 91.385,0 4.556,-0.652 8.307,-3.713 8.307,-8.325 v -108.228 c 0,-4.612 -3.705,-8.325 -8.307,-8.325 H 0 c -4.602,0 -8.308,3.713 -8.308,8.325 V -8.325 c 0,4.612 3.752,7.673 8.308,8.325" /></g><path
           id="path48"
           style="fill:#808080;fill-opacity:1;fill-rule:nonzero;stroke:none"
           d="m 62,51.857 h -2 v 144 h 2 z" /><path
           id="path50"
           style="fill:#808080;fill-opacity:1;fill-rule:nonzero;stroke:none"
           d="m 196,52 h -2 v 144 h 2 z" /><g
           transform="translate(244,100)"
           id="g52"><path
             id="path54"
             style="fill:#808080;fill-opacity:1;fill-rule:nonzero;stroke:none"
             d="M 0,0 -1.097,-0.736 -6.819,-4.574 C -10.015,-6.717 -12,-10.637 -12,-14.805 V -48 h 2.133 v 33.195 c 0,3.353 1.574,6.461 4.145,8.185 L 0,-2.782 Z" /></g><g
           transform="translate(12,100)"
           id="g56"><path
             id="path58"
             style="fill:#808080;fill-opacity:1;fill-rule:nonzero;stroke:none"
             d="M 0,0 1.097,-0.736 6.819,-4.574 C 10.015,-6.717 12,-10.637 12,-14.805 V -48 H 9.867 v 33.195 c 0,3.353 -1.574,6.461 -4.145,8.185 L 0,-2.782 Z" /></g></g></g></g></svg>
